outputs/icons/general/store_transfer_round.svg

<svg xmlns="http://www.w3.org/2000/svg" width="1200" height="1200" fill="none"><path fill="#000" d="M200 212.5c0-6.904 5.596-12.5 12.5-12.5h775c6.905 0 12.5 5.596 12.5 12.5v75c0 6.904-5.595 12.5-12.5 12.5h-775c-6.904 0-12.5-5.596-12.5-12.5z"/><path fill="#000" fill-rule="evenodd" d="M592.9 1000c8.065 0 14.01-7.525 12.54-15.455A327 327 0 0 1 600 925c0-179.495 145.505-325 325-325 44.295 0 86.52 8.86 125 24.91V600l-47.99-239.952A12.5 12.5 0 0 0 989.75 350H210.248a12.5 12.5 0 0 0-12.258 10.048L150 600v87.5c0 6.905 5.596 12.5 12.5 12.5H200v287.5c0 6.905 5.596 12.5 12.5 12.5zM300 900h300V700H300z"/><path fill="#000" d="M1066.665 838.41c0 10.85 12.88 16.55 20.91 9.25l60.585-55.075c5.455-4.96 5.455-13.54 0-18.5l-60.585-55.075c-8.03-7.3-20.91-1.605-20.91 9.245V762.5H743.75c-11.505 0-20.835 9.325-20.835 20.835 0 11.505 9.33 20.83 20.835 20.83h322.915zM791.665 894.925c0-10.855-12.875-16.55-20.905-9.25l-60.585 55.075c-5.455 4.96-5.455 13.54 0 18.5l60.585 55.075c8.03 7.3 20.905 1.605 20.905-9.25v-34.24h322.92c11.505 0 20.83-9.33 20.83-20.835s-9.325-20.835-20.83-20.835h-322.92z"/></svg>

<svg width="1200" height="1200" viewBox="0 0 1200 1200" fill="none" xmlns="http://www.w3.org/2000/svg"><path d="M200 212.5C200 205.596 205.596 200 212.5 200H987.5C994.405 200 1000 205.596 1000 212.5V287.5C1000 294.404 994.405 300 987.5 300H212.5C205.596 300 200 294.404 200 287.5V212.5Z" fill="#1D1E23"/><path fill-rule="evenodd" d="M592.9 1000C600.965 1000 606.91 992.475 605.44 984.545C601.87 965.24 600 945.34 600 925C600 745.505 745.505 600 925 600C969.295 600 1011.52 608.86 1050 624.91V600L1002.01 360.048C1000.84 354.206 995.71 350 989.75 350H210.248C204.289 350 199.159 354.206 197.99 360.048L150 600V687.5C150 694.405 155.596 700 162.5 700H200V987.5C200 994.405 205.596 1000 212.5 1000H592.9ZM300 900H600V700H300V900Z" fill="#1D1E23"/><path d="M1066.665 838.41C1066.665 849.26 1079.545 854.96 1087.575 847.66L1148.16 792.585C1153.615 787.625 1153.615 779.045 1148.16 774.085L1087.575 719.01C1079.545 711.71 1066.665 717.405 1066.665 728.255V762.5H743.75C732.245 762.5 722.915 771.825 722.915 783.335C722.915 794.84 732.245 804.165 743.75 804.165H1066.665V838.41Z" fill="#1D1E23"/><path d="M791.665 894.925C791.665 884.07 778.79 878.375 770.76 885.675L710.175 940.75C704.72 945.71 704.72 954.29 710.175 959.25L770.76 1014.325C778.79 1021.625 791.665 1015.93 791.665 1005.075V970.835H1114.585C1126.09 970.835 1135.415 961.505 1135.415 950C1135.415 938.495 1126.09 929.165 1114.585 929.165H791.665V894.925Z" fill="#1D1E23"/></svg>
